src/Icon/svgs/photo.svg

<svg width="24" height="24" viewBox="0 0 24 24" fill="none" xmlns="http://www.w3.org/2000/svg">
<path fill-rule="evenodd" clip-rule="evenodd" d="M3 2H21C21.5523 2 22 2.44772 22 3V21C22 21.5523 21.5523 22 21 22H3C2.44772 22 2 21.5523 2 21V3C2 2.44772 2.44772 2 3 2ZM8.5 13.5L11 16.5L14.5 12L19 18H5L8.5 13.5Z" fill="#1B1C1D"/>
</svg>

<svg xmlns="http://www.w3.org/2000/svg" width="24" height="24" fill="none"><path fill-rule="evenodd" d="M3 2h18a1 1 0 0 1 1 1v18a1 1 0 0 1-1 1H3a1 1 0 0 1-1-1V3a1 1 0 0 1 1-1zm5.5 11.5l2.5 3 3.5-4.5 4.5 6H5l3.5-4.5z" fill="#1B1C1D"/></svg>
